src/assets/icons/smallAnimal/fish.svg

<svg width="28" height="28" viewBox="0 0 28 28" fill="none" xmlns="http://www.w3.org/2000/svg">
<path d="M7.93587 13.7367C7.77585 13.5179 7.62486 13.2925 7.48254 13.061C6.65895 11.7215 6.14168 10.183 6.02392 8.53748C6.01092 8.35949 6.00297 8.18045 5.99972 8C4.74195 9.68594 4 11.7602 4 14.0037C4 15.5982 4.37495 17.1072 5.04321 18.4519C5.06308 18.4935 5.08366 18.5346 5.1057 18.5751C5.36253 19.0749 5.66054 19.5512 5.99467 20C5.99105 19.8899 5.98889 19.7798 5.98889 19.669C5.98889 19.6138 5.98961 19.5586 5.99033 19.5037C6.0167 17.8877 6.42777 16.3629 7.13865 15.0122C7.37273 14.5672 7.63967 14.1409 7.93587 13.7367ZM7.93587 13.7367C9.83915 16.3425 12.9651 18.0429 16.499 18.0429C18.1075 18.0429 19.6318 17.6901 20.9947 17.0604C22.5931 16.3218 23.9698 15.2014 25 13.8205C24.9993 13.7712 24.9978 13.722 24.9964 13.6727C23.9322 12.2439 22.4971 11.0937 20.8293 10.3557C19.5065 9.77004 18.037 9.44397 16.4896 9.44397C12.9612 9.44397 9.83987 11.138 7.93587 13.7367Z" stroke="#231F20" stroke-width="2.3" stroke-linecap="round" stroke-linejoin="round"/>
</svg>

<?xml version="1.0" encoding="utf-8"?>
<!-- Generator: Adobe Illustrator 26.1.0, SVG Export Plug-In . SVG Version: 6.00 Build 0)  -->
<svg version="1.1" id="Layer_1" xmlns="http://www.w3.org/2000/svg" xmlns:xlink="http://www.w3.org/1999/xlink" x="0px" y="0px"
	 viewBox="0 0 28 28" style="enable-background:new 0 0 28 28;" xml:space="preserve">
<style type="text/css">
	.st0{fill:none;stroke:#000000;stroke-width:2.3;stroke-linecap:round;stroke-linejoin:round;}
</style>
<path class="st0" d="M7.94,13.74c-0.16-0.22-0.31-0.44-0.45-0.68c-0.82-1.34-1.34-2.88-1.46-4.52C6.01,8.36,6,8.18,6,8
	c-1.26,1.69-2,3.76-2,6c0,1.59,0.37,3.1,1.04,4.45c0.02,0.04,0.04,0.08,0.06,0.12c0.26,0.5,0.55,0.98,0.89,1.42
	c0-0.11-0.01-0.22-0.01-0.33c0-0.06,0-0.11,0-0.17c0.03-1.62,0.44-3.14,1.15-4.49C7.37,14.57,7.64,14.14,7.94,13.74z M7.94,13.74
	c1.9,2.61,5.03,4.31,8.56,4.31c1.61,0,3.13-0.35,4.5-0.98c1.6-0.74,2.98-1.86,4.01-3.24c0-0.05,0-0.1,0-0.15
	c-1.06-1.43-2.5-2.58-4.17-3.32c-1.32-0.59-2.79-0.91-4.34-0.91C12.96,9.44,9.84,11.14,7.94,13.74z"/>
</svg>
